public/images/SFSafeHome-fulllogo.svg

<svg width="620" height="122" viewBox="0 0 620 122" fill="none" xmlns="http://www.w3.org/2000/svg">
<mask id="path-1-inside-1_5011_1677" fill="white">
<path d="M47.5908 4.51204C54.6111 -1.5053 64.9709 -1.50533 71.9912 4.51204L112.891 39.5697C117.046 43.1311 119.438 48.3306 119.438 53.8031V103.123C119.437 113.476 111.044 121.869 100.691 121.869H95.5791C95.4443 121.869 95.3099 121.867 95.1758 121.865H24.4053C24.2715 121.867 24.1374 121.869 24.0029 121.869H18.8906C8.53749 121.869 0.144721 113.476 0.144531 103.123V53.8031C0.144531 48.3306 2.5355 43.1311 6.69043 39.5697L47.5908 4.51204Z"/>
</mask>
<path d="M47.5908 4.51204L41.8976 -2.13016L41.8975 -2.13012L47.5908 4.51204ZM71.9912 4.51204L77.6846 -2.13006L77.6845 -2.13013L71.9912 4.51204ZM112.891 39.5697L107.197 46.2117L107.197 46.2118L112.891 39.5697ZM119.438 103.123L128.186 103.124V103.123H119.438ZM100.691 121.869L100.691 130.618L100.692 130.618L100.691 121.869ZM95.1758 121.865L95.3604 113.118L95.2681 113.116H95.1758V121.865ZM24.4053 121.865V113.116H24.3131L24.221 113.118L24.4053 121.865ZM24.0029 121.869L24.0029 130.618L24.003 130.618L24.0029 121.869ZM18.8906 121.869L18.8906 130.618H18.8906V121.869ZM0.144531 103.123L-8.60372 103.123L-8.60372 103.124L0.144531 103.123ZM6.69043 39.5697L0.997128 32.9275L0.997067 32.9275L6.69043 39.5697ZM47.5908 4.51204L53.2841 11.1542C57.0283 7.94496 62.5538 7.94497 66.2979 11.1542L71.9912 4.51204L77.6845 -2.13013C67.3881 -10.9556 52.1939 -10.9555 41.8976 -2.13016L47.5908 4.51204ZM71.9912 4.51204L66.2978 11.1541L107.197 46.2117L112.891 39.5697L118.584 32.9276L77.6846 -2.13006L71.9912 4.51204ZM112.891 39.5697L107.197 46.2118C109.414 48.1116 110.689 50.8849 110.689 53.8031H119.438H128.186C128.186 45.7762 124.678 38.1506 118.584 32.9275L112.891 39.5697ZM119.438 53.8031H110.689V103.123H119.438H128.186V53.8031H119.438ZM119.438 103.123L110.689 103.123C110.689 108.645 106.213 113.121 100.691 113.121L100.691 121.869L100.692 130.618C115.876 130.617 128.185 118.308 128.186 103.124L119.438 103.123ZM100.691 121.869V113.121H95.5791V121.869V130.618H100.691V121.869ZM95.5791 121.869V113.121C95.5302 113.121 95.4633 113.12 95.3604 113.118L95.1758 121.865L94.9912 130.611C95.1564 130.614 95.3585 130.618 95.5791 130.618V121.869ZM95.1758 121.865V113.116H24.4053V121.865V130.613H95.1758V121.865ZM24.4053 121.865L24.221 113.118C24.1173 113.12 24.051 113.121 24.0029 113.121L24.0029 121.869L24.003 130.618C24.2238 130.618 24.4257 130.614 24.5895 130.611L24.4053 121.865ZM24.0029 121.869V113.121H18.8906V121.869V130.618H24.0029V121.869ZM18.8906 121.869L18.8906 113.121C13.3692 113.121 8.89289 108.645 8.89279 103.123L0.144531 103.123L-8.60372 103.124C-8.60344 118.308 3.70582 130.618 18.8906 130.618L18.8906 121.869ZM0.144531 103.123H8.89279V53.8031H0.144531H-8.60372V103.123H0.144531ZM0.144531 53.8031H8.89279C8.89279 50.8839 10.1682 48.1109 12.3838 46.2118L6.69043 39.5697L0.997067 32.9275C-5.0972 38.1513 -8.60372 45.7773 -8.60372 53.8031H0.144531ZM6.69043 39.5697L12.3837 46.2118L53.2841 11.1542L47.5908 4.51204L41.8975 -2.13012L0.997128 32.9275L6.69043 39.5697Z" fill="white" mask="url(#path-1-inside-1_5011_1677)"/>
<path d="M80.1181 50.7441C82.6264 48.2363 86.6925 48.2364 89.2002 50.7441C91.7085 53.2519 91.7085 57.3183 89.2002 59.8261L55.5869 93.4404C52.8282 96.199 48.3554 96.1989 45.5967 93.4404L30.1582 78.0009C27.6504 75.4933 27.6504 71.4275 30.1582 68.9199C32.666 66.4123 36.7314 66.4122 39.2392 68.9199L50.5908 80.2714L80.1181 50.7441Z" fill="white"/>
<path d="M182.684 116.184C177.788 116.184 173.372 115.352 169.436 113.688C165.532 112.024 162.3 109.656 159.74 106.584C157.212 103.48 155.564 99.8161 154.796 95.5921L163.628 94.2001C164.748 98.5521 167.068 101.96 170.588 104.424C174.14 106.856 178.316 108.072 183.116 108.072C186.22 108.072 189.02 107.592 191.516 106.632C194.044 105.64 196.044 104.232 197.516 102.408C198.988 100.584 199.724 98.4241 199.724 95.9281C199.724 94.3921 199.452 93.0801 198.908 91.9921C198.396 90.8721 197.676 89.9281 196.748 89.1601C195.852 88.3601 194.828 87.6881 193.676 87.1441C192.524 86.6001 191.324 86.1521 190.076 85.8001L172.46 80.5681C170.54 79.9921 168.684 79.2721 166.892 78.4081C165.1 77.5121 163.5 76.4081 162.092 75.0961C160.684 73.7521 159.564 72.1521 158.732 70.2961C157.9 68.4081 157.484 66.1841 157.484 63.6241C157.484 59.5281 158.54 56.0401 160.652 53.1601C162.796 50.2481 165.692 48.0241 169.34 46.4881C172.988 44.9521 177.1 44.2001 181.676 44.2321C186.316 44.2641 190.46 45.0961 194.108 46.7281C197.788 48.3281 200.828 50.6321 203.228 53.6401C205.66 56.6481 207.292 60.2481 208.124 64.4401L199.052 66.0241C198.572 63.2081 197.5 60.7921 195.836 58.7761C194.204 56.7281 192.156 55.1601 189.692 54.0721C187.228 52.9521 184.524 52.3761 181.58 52.3441C178.764 52.3121 176.22 52.7601 173.948 53.6881C171.676 54.6161 169.868 55.9121 168.524 57.5761C167.18 59.2081 166.508 61.0961 166.508 63.2401C166.508 65.3521 167.116 67.0641 168.332 68.3761C169.548 69.6561 171.036 70.6801 172.796 71.4481C174.588 72.1841 176.332 72.7921 178.028 73.2721L191.18 77.0641C192.684 77.4801 194.412 78.0561 196.364 78.7921C198.348 79.5281 200.268 80.5681 202.124 81.9121C203.98 83.2241 205.516 84.9841 206.732 87.1921C207.948 89.3681 208.556 92.1201 208.556 95.4481C208.556 98.7761 207.884 101.736 206.54 104.328C205.228 106.92 203.388 109.096 201.02 110.856C198.652 112.584 195.9 113.896 192.764 114.792C189.628 115.72 186.268 116.184 182.684 116.184ZM233.36 116.184C229.488 116.184 226.24 115.48 223.616 114.072C221.024 112.632 219.056 110.744 217.712 108.408C216.4 106.072 215.744 103.512 215.744 100.728C215.744 98.0081 216.256 95.6561 217.28 93.6721C218.336 91.6561 219.808 89.9921 221.696 88.6801C223.584 87.3361 225.84 86.2801 228.464 85.5121C230.928 84.8401 233.68 84.2641 236.72 83.7841C239.792 83.2721 242.896 82.8081 246.032 82.3921C249.168 81.9761 252.096 81.5761 254.816 81.1921L251.744 82.9681C251.84 78.3601 250.912 74.9521 248.96 72.7441C247.04 70.5361 243.712 69.4321 238.976 69.4321C235.84 69.4321 233.088 70.1521 230.72 71.5921C228.384 73.0001 226.736 75.3041 225.776 78.5041L217.664 76.0561C218.912 71.5121 221.328 67.9441 224.912 65.3521C228.496 62.7601 233.216 61.4641 239.072 61.4641C243.776 61.4641 247.808 62.3121 251.168 64.0081C254.56 65.6721 256.992 68.2001 258.464 71.5921C259.2 73.1921 259.664 74.9361 259.856 76.8241C260.048 78.6801 260.144 80.6321 260.144 82.6801V114.744H252.56V102.312L254.336 103.464C252.384 107.656 249.648 110.824 246.128 112.968C242.64 115.112 238.384 116.184 233.36 116.184ZM234.656 109.032C237.728 109.032 240.384 108.488 242.624 107.4C244.896 106.28 246.72 104.824 248.096 103.032C249.472 101.208 250.368 99.2241 250.784 97.0801C251.264 95.4801 251.52 93.7041 251.552 91.7521C251.616 89.7681 251.648 88.2481 251.648 87.1921L254.624 88.4881C251.84 88.8721 249.104 89.2401 246.416 89.5921C243.728 89.9441 241.184 90.3281 238.784 90.7441C236.384 91.1281 234.224 91.5921 232.304 92.1361C230.896 92.5841 229.568 93.1601 228.32 93.8641C227.104 94.5681 226.112 95.4801 225.344 96.6001C224.608 97.6881 224.24 99.0481 224.24 100.68C224.24 102.088 224.592 103.432 225.296 104.712C226.032 105.992 227.152 107.032 228.656 107.832C230.192 108.632 232.192 109.032 234.656 109.032ZM277.568 114.744V60.0721C277.568 58.7281 277.632 57.3681 277.76 55.9921C277.888 54.5841 278.176 53.2241 278.624 51.9121C279.072 50.5681 279.808 49.3361 280.832 48.2161C282.016 46.9041 283.312 45.9761 284.72 45.4321C286.128 44.8561 287.552 44.5041 288.992 44.3761C290.464 44.2481 291.856 44.1841 293.168 44.1841H299.744V51.2881H293.648C291.12 51.2881 289.232 51.9121 287.984 53.1601C286.736 54.3761 286.112 56.2321 286.112 58.7281V114.744H277.568ZM268.784 69.9601V62.9041H299.744V69.9601H268.784ZM327.995 116.184C322.907 116.184 318.459 115.064 314.651 112.824C310.875 110.552 307.931 107.4 305.819 103.368C303.707 99.3041 302.651 94.5681 302.651 89.1601C302.651 83.4961 303.691 78.6001 305.771 74.4721C307.851 70.3121 310.747 67.1121 314.459 64.8721C318.203 62.6001 322.587 61.4641 327.611 61.4641C332.827 61.4641 337.259 62.6641 340.907 65.0641C344.587 67.4641 347.339 70.8881 349.163 75.3361C351.019 79.7841 351.819 85.0801 351.563 91.2241H342.923V88.1521C342.827 81.7841 341.531 77.0321 339.035 73.8961C336.539 70.7281 332.827 69.1441 327.899 69.1441C322.619 69.1441 318.603 70.8401 315.851 74.2321C313.099 77.6241 311.723 82.4881 311.723 88.8241C311.723 94.9361 313.099 99.6721 315.851 103.032C318.603 106.392 322.523 108.072 327.611 108.072C331.035 108.072 334.011 107.288 336.539 105.72C339.067 104.152 341.051 101.896 342.491 98.9521L350.699 101.784C348.683 106.36 345.643 109.912 341.579 112.44C337.547 114.936 333.019 116.184 327.995 116.184ZM308.843 91.2241V84.3601H347.147V91.2241H308.843ZM362.249 114.744V45.6241H370.793V76.1041H407.177V45.6241H415.721V114.744H407.177V84.2161H370.793V114.744H362.249ZM451.267 116.184C446.115 116.184 441.667 115.016 437.923 112.68C434.211 110.344 431.347 107.112 429.331 102.984C427.315 98.8561 426.307 94.1201 426.307 88.7761C426.307 83.3361 427.331 78.5681 429.379 74.4721C431.427 70.3761 434.323 67.1921 438.067 64.9201C441.811 62.6161 446.211 61.4641 451.267 61.4641C456.451 61.4641 460.915 62.6321 464.659 64.9681C468.403 67.2721 471.267 70.4881 473.251 74.6161C475.267 78.7121 476.275 83.4321 476.275 88.7761C476.275 94.1841 475.267 98.9521 473.251 103.08C471.235 107.176 468.355 110.392 464.611 112.728C460.867 115.032 456.419 116.184 451.267 116.184ZM451.267 108.072C456.643 108.072 460.643 106.28 463.267 102.696C465.891 99.1121 467.203 94.4721 467.203 88.7761C467.203 82.9201 465.875 78.2641 463.219 74.8081C460.563 71.3201 456.579 69.5761 451.267 69.5761C447.651 69.5761 444.675 70.3921 442.339 72.0241C440.003 73.6561 438.259 75.9121 437.107 78.7921C435.955 81.6721 435.379 85.0001 435.379 88.7761C435.379 94.6001 436.723 99.2721 439.411 102.792C442.099 106.312 446.051 108.072 451.267 108.072ZM548.811 114.744L548.859 81.5761C548.859 77.7041 547.819 74.6801 545.739 72.5041C543.691 70.2961 541.019 69.1921 537.723 69.1921C535.803 69.1921 533.979 69.6401 532.251 70.5361C530.523 71.4001 529.115 72.7761 528.027 74.6641C526.939 76.5201 526.395 78.9041 526.395 81.8161L521.883 79.9921C521.819 76.3121 522.571 73.0961 524.139 70.3441C525.739 67.5601 527.915 65.4001 530.667 63.8641C533.419 62.3281 536.523 61.5601 539.979 61.5601C545.387 61.5601 549.643 63.2081 552.747 66.5041C555.851 69.7681 557.403 74.1681 557.403 79.7041L557.355 114.744H548.811ZM486.795 114.744V62.9041H494.427V76.7761H495.387V114.744H486.795ZM517.851 114.744L517.899 81.9121C517.899 77.9441 516.875 74.8401 514.827 72.6001C512.779 70.3281 510.059 69.1921 506.667 69.1921C503.307 69.1921 500.587 70.3441 498.507 72.6481C496.427 74.9521 495.387 78.0081 495.387 81.8161L490.875 79.1281C490.875 75.7681 491.675 72.7601 493.275 70.1041C494.875 67.4481 497.051 65.3681 499.803 63.8641C502.555 62.3281 505.675 61.5601 509.163 61.5601C512.651 61.5601 515.691 62.2961 518.283 63.7681C520.875 65.2401 522.875 67.3521 524.283 70.1041C525.691 72.8241 526.395 76.0721 526.395 79.8481L526.347 114.744H517.851ZM591.901 116.184C586.813 116.184 582.365 115.064 578.557 112.824C574.781 110.552 571.837 107.4 569.725 103.368C567.613 99.3041 566.557 94.5681 566.557 89.1601C566.557 83.4961 567.597 78.6001 569.677 74.4721C571.757 70.3121 574.653 67.1121 578.365 64.8721C582.109 62.6001 586.493 61.4641 591.517 61.4641C596.733 61.4641 601.165 62.6641 604.813 65.0641C608.493 67.4641 611.245 70.8881 613.069 75.3361C614.925 79.7841 615.725 85.0801 615.469 91.2241H606.829V88.1521C606.733 81.7841 605.437 77.0321 602.941 73.8961C600.445 70.7281 596.733 69.1441 591.805 69.1441C586.525 69.1441 582.509 70.8401 579.757 74.2321C577.005 77.6241 575.629 82.4881 575.629 88.8241C575.629 94.9361 577.005 99.6721 579.757 103.032C582.509 106.392 586.429 108.072 591.517 108.072C594.941 108.072 597.917 107.288 600.445 105.72C602.973 104.152 604.957 101.896 606.397 98.9521L614.605 101.784C612.589 106.36 609.549 109.912 605.485 112.44C601.453 114.936 596.925 116.184 591.901 116.184ZM572.749 91.2241V84.3601H611.053V91.2241H572.749Z" fill="white"/>
</svg>

<svg xmlns="http://www.w3.org/2000/svg" width="620" height="122" fill="none"><mask id="a" fill="#fff"><path d="M47.59 4.512c7.021-6.017 17.38-6.017 24.401 0l40.9 35.058a18.75 18.75 0 0 1 6.547 14.233v49.32c-.001 10.353-8.394 18.746-18.747 18.746h-5.112q-.203 0-.403-.004h-70.77q-.202.003-.403.004H18.89c-10.354 0-18.746-8.393-18.746-18.746v-49.32A18.75 18.75 0 0 1 6.69 39.57z"/></mask><path fill="#fff" d="M47.59 4.512 41.899-2.13zm24.401 0 5.694-6.642zm40.9 35.058-5.694 6.642zm6.547 63.553 8.748.001v-.001zm-18.747 18.746v8.749h.001zm-5.515-.004.184-8.747-.092-.002h-.092zm-70.77 0v-8.749h-.093l-.092.002zm-.403.004v8.749zm-5.112 0v8.749zM.145 103.123h-8.749v.001zM6.69 39.57.997 32.928zm40.9-35.058 5.694 6.642a10 10 0 0 1 13.014 0l5.693-6.642 5.694-6.642c-10.297-8.826-25.491-8.825-35.787 0zm24.401 0-5.693 6.642 40.899 35.058 5.694-6.642 5.693-6.642-40.9-35.058zm40.9 35.058-5.694 6.642a10 10 0 0 1 3.492 7.591h17.497a27.5 27.5 0 0 0-9.602-20.875zm6.547 14.233h-8.749v49.32h17.497v-49.32zm0 49.32h-8.749c0 5.522-4.476 9.998-9.998 9.998v8.748l.001 8.749c15.184-.001 27.493-12.31 27.494-27.494zm-18.747 18.746v-8.748h-5.112v17.497h5.112zm-5.112 0v-8.748l-.219-.003-.184 8.747-.185 8.746c.165.003.368.007.588.007zm-.403-.004v-8.749h-70.77v17.497h70.77zm-70.77 0-.185-8.747-.218.003v17.497c.22 0 .423-.004.587-.007zm-.403.004v-8.748H18.89v17.497h5.112zm-5.112 0v-8.748c-5.522 0-9.998-4.476-9.998-9.998H.145l-8.749.001c0 15.184 12.31 27.494 27.495 27.494zM.145 103.123h8.748v-49.32H-8.604v49.32zm0-49.32h8.748a10 10 0 0 1 3.49-7.591L6.69 39.57.997 32.928a27.5 27.5 0 0 0-9.6 20.875zM6.69 39.57l5.694 6.642 40.9-35.058-5.693-6.642-5.693-6.642-40.9 35.058z" mask="url(#a)"/><path fill="#fff" d="M80.118 50.744a6.422 6.422 0 0 1 9.082 9.082L55.587 93.44a7.064 7.064 0 0 1-9.99 0L30.158 78a6.421 6.421 0 1 1 9.081-9.08L50.591 80.27zM182.684 116.184q-7.344 0-13.248-2.496-5.856-2.496-9.696-7.104-3.792-4.656-4.944-10.992l8.832-1.392q1.68 6.528 6.96 10.224 5.328 3.648 12.528 3.648 4.656 0 8.4-1.44 3.792-1.488 6-4.224t2.208-6.48q0-2.304-.816-3.936a7.9 7.9 0 0 0-2.16-2.832 12.8 12.8 0 0 0-3.072-2.016 23 23 0 0 0-3.6-1.344l-17.616-5.232a38 38 0 0 1-5.568-2.16 20.3 20.3 0 0 1-4.8-3.312q-2.112-2.016-3.36-4.8-1.248-2.832-1.248-6.672 0-6.144 3.168-10.464 3.216-4.368 8.688-6.672t12.336-2.256q6.96.048 12.432 2.496 5.52 2.4 9.12 6.912 3.648 4.512 4.896 10.8l-9.072 1.584q-.72-4.224-3.216-7.248-2.448-3.072-6.144-4.704-3.696-1.68-8.112-1.728-4.224-.048-7.632 1.344t-5.424 3.888q-2.016 2.448-2.016 5.664 0 3.168 1.824 5.136 1.824 1.92 4.464 3.072a49 49 0 0 0 5.232 1.824l13.152 3.792q2.256.624 5.184 1.728 2.976 1.104 5.76 3.12 2.784 1.968 4.608 5.28 1.824 3.264 1.824 8.256t-2.016 8.88q-1.968 3.888-5.52 6.528-3.552 2.592-8.256 3.936-4.704 1.392-10.08 1.392m50.676 0q-5.808 0-9.744-2.112-3.888-2.16-5.904-5.664-1.968-3.504-1.968-7.68 0-4.08 1.536-7.056a13.8 13.8 0 0 1 4.416-4.992q2.832-2.016 6.768-3.168 3.696-1.008 8.256-1.728 4.608-.768 9.312-1.392t8.784-1.2l-3.072 1.776q.144-6.912-2.784-10.224-2.88-3.312-9.984-3.312-4.704 0-8.256 2.16-3.504 2.112-4.944 6.912l-8.112-2.448q1.872-6.816 7.248-10.704t14.16-3.888q7.056 0 12.096 2.544 5.088 2.496 7.296 7.584 1.104 2.4 1.392 5.232.288 2.784.288 5.856v32.064h-7.584v-12.432l1.776 1.152q-2.928 6.288-8.208 9.504-5.232 3.216-12.768 3.216m1.296-7.152q4.608 0 7.968-1.632 3.408-1.68 5.472-4.368 2.064-2.736 2.688-5.952.72-2.4.768-5.328.096-2.976.096-4.56l2.976 1.296q-4.176.576-8.208 1.104t-7.632 1.152q-3.6.576-6.48 1.392a21 21 0 0 0-3.984 1.728 9.05 9.05 0 0 0-2.976 2.736q-1.104 1.632-1.104 4.08 0 2.112 1.056 4.032 1.104 1.92 3.36 3.12 2.304 1.2 6 1.2m42.912 5.712V60.072q0-2.016.192-4.08.192-2.112.864-4.08.672-2.016 2.208-3.696 1.776-1.968 3.888-2.784a14.7 14.7 0 0 1 4.272-1.056 48 48 0 0 1 4.176-.192h6.576v7.104h-6.096q-3.792 0-5.664 1.872-1.872 1.824-1.872 5.568v56.016zm-8.784-44.784v-7.056h30.96v7.056zm59.211 46.224q-7.632 0-13.344-3.36-5.664-3.408-8.832-9.456-3.168-6.096-3.168-14.208 0-8.496 3.12-14.688 3.12-6.24 8.688-9.6 5.616-3.408 13.152-3.408 7.824 0 13.296 3.6 5.52 3.6 8.256 10.272 2.784 6.672 2.4 15.888h-8.64v-3.072q-.144-9.552-3.888-14.256-3.744-4.752-11.136-4.752-7.92 0-12.048 5.088t-4.128 14.592q0 9.168 4.128 14.208t11.76 5.04q5.136 0 8.928-2.352t5.952-6.768l8.208 2.832q-3.024 6.864-9.12 10.656-6.048 3.744-13.584 3.744m-19.152-24.96V84.36h38.304v6.864zm53.406 23.52v-69.12h8.544v30.48h36.384v-30.48h8.544v69.12h-8.544V84.216h-36.384v30.528zm89.018 1.44q-7.728 0-13.344-3.504-5.568-3.504-8.592-9.696t-3.024-14.208q0-8.16 3.072-14.304t8.688-9.552q5.616-3.456 13.2-3.456 7.776 0 13.392 3.504 5.616 3.456 8.592 9.648 3.024 6.144 3.024 14.16 0 8.112-3.024 14.304-3.024 6.144-8.64 9.648-5.616 3.456-13.344 3.456m0-8.112q8.064 0 12-5.376t3.936-13.92q0-8.784-3.984-13.968-3.984-5.232-11.952-5.232-5.424 0-8.928 2.448t-5.232 6.768-1.728 9.984q0 8.736 4.032 14.016t11.856 5.28m97.544 6.672.048-33.168q0-5.808-3.12-9.072-3.072-3.312-8.016-3.312-2.88 0-5.472 1.344-2.592 1.296-4.224 4.128-1.632 2.784-1.632 7.152l-4.512-1.824q-.096-5.52 2.256-9.648 2.4-4.176 6.528-6.48t9.312-2.304q8.112 0 12.768 4.944 4.656 4.896 4.656 13.2l-.048 35.04zm-62.016 0v-51.84h7.632v13.872h.96v37.968zm31.056 0 .048-32.832q0-5.952-3.072-9.312-3.072-3.408-8.16-3.408-5.04 0-8.16 3.456t-3.12 9.168l-4.512-2.688q0-5.04 2.4-9.024t6.528-6.24q4.128-2.304 9.36-2.304t9.12 2.208 6 6.336q2.112 4.08 2.112 9.744l-.048 34.896zm74.05 1.44q-7.632 0-13.344-3.36-5.664-3.408-8.832-9.456-3.168-6.096-3.168-14.208 0-8.496 3.12-14.688 3.12-6.24 8.688-9.6 5.616-3.408 13.152-3.408 7.824 0 13.296 3.6 5.52 3.6 8.256 10.272 2.784 6.672 2.4 15.888h-8.64v-3.072q-.144-9.552-3.888-14.256-3.744-4.752-11.136-4.752-7.92 0-12.048 5.088t-4.128 14.592q0 9.168 4.128 14.208t11.76 5.04q5.136 0 8.928-2.352t5.952-6.768l8.208 2.832q-3.024 6.864-9.12 10.656-6.048 3.744-13.584 3.744m-19.152-24.96V84.36h38.304v6.864z"/></svg>
